X: 485
T:Leitrim Town
T:Whinny Hills of Leitrim, The
R:slip jig
D:Chieftains 4.
D:Dervish: Harmony Hill
Z:id:hn-slipjig-13
M:9/8
N:Posted to the woodenflute mailing list January 2002
K:D
FAB FAB AFD|FAB FAB d2A|FAB FAB AFD|FAd edc B2A:|
~f3 efe d2e|~f3 efg a2g|~f3 efe dBA|AFA dfa b2a|
~f3 efe d2e|~f3 def gfg|afd gfe dBA|BAF DFA B2A||
"Version 2:"
FAA FAB AFD|FAA FAB d2A|FAA FAB AFD|~f3 edc B2A:|
|:~f3 efe d2e|~f3 def gfe|~f3 efe d2A|BAF DFA B2A:|

